assets/maps-line-icon-white.svg

<?xml version="1.0" encoding="UTF-8" standalone="no" ?>
<!DOCTYPE svg PUBLIC "-//W3C//DTD SVG 1.1//EN" "http://www.w3.org/Graphics/SVG/1.1/DTD/svg11.dtd">
<svg xmlns="http://www.w3.org/2000/svg" xmlns:xlink="http://www.w3.org/1999/xlink" version="1.1" width="1080" height="1080" viewBox="0 0 1080 1080" xml:space="preserve">
<desc>Created with Fabric.js 5.2.4</desc>
<defs>
</defs>
<g transform="matrix(1 0 0 1 540 540)" id="3421d663-9d8b-490b-8b26-9fc55d7edbfd"  >
<rect style="stroke: none; stroke-width: 1; stroke-dasharray: none; stroke-linecap: butt; stroke-dashoffset: 0; stroke-linejoin: miter; stroke-miterlimit: 4; fill: rgb(255,255,255); fill-rule: nonzero; opacity: 1; visibility: hidden;" vector-effect="non-scaling-stroke"  x="-540" y="-540" rx="0" ry="0" width="1080" height="1080" />
</g>
<g transform="matrix(1 0 0 1 540 540)" id="cc44347a-c619-4b77-9611-26410db3771c"  >
</g>
<g transform="matrix(1 0 0 1 540 540)" id="c57e4887-bbc0-49d3-9d7e-9e832c4f9488"  >
<path style="stroke: rgb(0,0,0); stroke-width: 0; stroke-dasharray: none; stroke-linecap: butt; stroke-dashoffset: 0; stroke-linejoin: miter; stroke-miterlimit: 4; fill: rgb(255,255,255); fill-rule: nonzero; opacity: 1;" vector-effect="non-scaling-stroke"  transform=" translate(-59.71, -61.45)" d="M 78.62 17.22 L 115.33000000000001 0.2699999999999996 C 116.78000000000002 -0.39000000000000046 118.47000000000001 0.23999999999999957 119.13000000000001 1.6899999999999995 C 119.30000000000001 2.0699999999999994 119.41000000000001 2.4799999999999995 119.41000000000001 2.8999999999999995 L 119.41000000000001 97.13000000000001 C 119.41000000000001 98.24000000000001 118.79 99.17000000000002 117.89000000000001 99.65 L 80.15 122.44 C 80.08000000000001 122.47 80.01 122.53999999999999 79.91000000000001 122.58 L 79.88000000000001 122.61 L 79.78000000000002 122.61 C 79.43000000000002 122.78 79.05000000000001 122.85 78.68000000000002 122.85 C 78.31000000000003 122.85 77.92000000000002 122.78 77.57000000000002 122.61 L 77.47000000000003 122.61 L 77.44000000000003 122.58 C 77.37000000000003 122.55 77.27000000000002 122.51 77.20000000000003 122.44 L 40.81000000000003 100.47999999999999 L 4.380000000000031 122.47999999999999 C 3.030000000000031 123.30999999999999 1.2400000000000309 122.85999999999999 0.44000000000003103 121.50999999999999 C 0.14 121.05 0 120.53 0 120.01 L 0 20.39 C 0 19.150000000000002 0.76 18.11 1.86 17.7 L 39.61 0.3 L 39.68 0.3 L 39.75 0.27 L 39.78 0.27 C 40.06 0.17 40.33 0.1 40.64 0.1 L 40.99 0.1 C 41.27 0.13 41.580000000000005 0.17 41.85 0.27 L 41.88 0.27 L 41.95 0.30000000000000004 L 42.02 0.30000000000000004 L 78.73 17.25 L 78.62 17.22 L 78.62 17.22 z M 37.84 95.49 L 37.84 7.37 L 5.7 22.22 L 5.7 114.9 L 37.84 95.49 L 37.84 95.49 L 37.84 95.49 z M 75.76 114.9 L 75.76 22.22 L 43.61 7.37 L 43.61 95.49000000000001 L 75.76 114.9 L 75.76 114.9 z M 113.67 7.37 L 81.53 22.22 L 81.53 114.9 L 113.68 95.49000000000001 L 113.68 7.37 L 113.67 7.37 z" stroke-linecap="round" />
</g>
</svg>

<?xml version="1.0"?>
<svg width="119.4" height="122.88" xmlns="http://www.w3.org/2000/svg" xmlns:svg="http://www.w3.org/2000/svg" enable-background="new 0 0 119.4 122.88" version="1.1" xml:space="preserve">

 <g class="layer">
  <title>Layer 1</title>
  <g id="svg_1">
   <path d="m78.62,17.22l36.71,-16.95c1.45,-0.66 3.14,-0.03 3.8,1.42c0.17,0.38 0.28,0.79 0.28,1.21l0,94.23c0,1.11 -0.62,2.04 -1.52,2.52l-37.74,22.79c-0.07,0.03 -0.14,0.1 -0.24,0.14l-0.03,0.03l-0.1,0c-0.35,0.17 -0.73,0.24 -1.1,0.24s-0.76,-0.07 -1.11,-0.24l-0.1,0l-0.03,-0.03c-0.07,-0.03 -0.17,-0.07 -0.24,-0.14l-36.39,-21.96l-36.43,22c-1.35,0.83 -3.14,0.38 -3.94,-0.97c-0.3,-0.46 -0.44,-0.98 -0.44,-1.5l0,-99.62c0,-1.24 0.76,-2.28 1.86,-2.69l37.75,-17.4l0.07,0l0.07,-0.03l0.03,0c0.28,-0.1 0.55,-0.17 0.86,-0.17l0.35,0c0.28,0.03 0.59,0.07 0.86,0.17l0.03,0l0.07,0.03l0.07,0l36.71,16.95l-0.11,-0.03l0,0zm-40.78,78.27l0,-88.12l-32.14,14.85l0,92.68l32.14,-19.41l0,0l0,0zm37.92,19.41l0,-92.68l-32.15,-14.85l0,88.12l32.15,19.41l0,0zm37.91,-107.53l-32.14,14.85l0,92.68l32.15,-19.41l0,-88.12l-0.01,0z" fill="#ffffff" id="svg_2"/>
  </g>
 </g>
</svg>
